images/health.svg

<svg fill="none" height="60" viewBox="0 0 60 60" width="60" xmlns="http://www.w3.org/2000/svg" xmlns:xlink="http://www.w3.org/1999/xlink"><clipPath id="a"><path d="m0 0h60v60h-60z"/></clipPath><g clip-path="url(#a)"><path d="m45.4084 7.55763c-4.2773.00595-8.0887 1.99173-10.573 5.08807-.4014.5003-1.1645.5003-1.566 0-2.4838-3.09634-6.2952-5.08212-10.5725-5.08807-7.4652-.01053-13.5828 6.08227-13.59653 13.54797-.02609 14.0786 18.94233 27.8852 23.81973 31.2026.6839.4651 1.5812.4651 2.2651 0 4.8774-3.3174 23.8454-17.124 23.8197-31.2026-.0142-7.4652-6.1313-13.5585-13.5965-13.54797z" fill="#ff592a"/><path d="m23.6765 7.59521c.3433.38819.9142.44175 1.3202.16068-.433-.07507-.8739-.12817-1.3202-.16068z" fill="#f63511"/><path d="m46.4072 7.59326c1.8526 2.31583 2.9659 5.24594 2.9718 8.42514.0257 13.7792-18.1412 27.296-23.4874 30.9751 2.9929 2.4921 5.6085 4.3483 7.0285 5.3142.6839.4651 1.5811.4651 2.265 0 4.8775-3.3174 23.8454-17.1236 23.8198-31.2021-.0133-7.1297-5.5934-13.00697-12.5977-13.51234z" fill="#f63511"/><path d="m25.5277 30.7581c-.3864 0-.7274-.2526-.84-.6225l-2.6679-8.7635h-7.9907c-.4852 0-.8785-.3932-.8785-.8784 0-.4848.3933-.878.8785-.878h8.6412c.3868 0 .7278.2527.8405.6226l2.0169 6.6261 2.9461-9.6771c.1122-.3699.4537-.6226.84-.6226.3864 0 .7274.2527.84.6226l1.2749 4.188h7.7234c.4848 0 .878.3933.878.8785 0 .4848-.3932.878-.878.878h-8.3739c-.3863 0-.7278-.2527-.84-.6221l-.6244-2.0513-2.9461 9.6772c-.1122.3699-.4532.6225-.84.6225z" fill="#ffc5b2"/><path d="m7.53345 35.5618h24.79615v5.4345h-24.79615z" fill="#848489"/><path d="m27.2805 35.5618v1.3582c0 1.0075-.8171 1.8246-1.8247 1.8246h-17.92235v2.2517h24.79615v-5.4345z" fill="#5b5b5b"/><path d="m33.6755 46.6045h-1.9112c-.6473 0-1.1719-.5246-1.1719-1.1719v-14.22c0-.6472.5246-1.1718 1.1719-1.1718h1.9112c.6472 0 1.1718.5246 1.1718 1.1718v14.22c0 .6473-.5246 1.1719-1.1718 1.1719z" fill="#848489"/><path d="m37.9305 44.5044h-1.9112c-.6473 0-1.1719-.5246-1.1719-1.1719v-10.02c0-.6473.5246-1.1719 1.1719-1.1719h1.9112c.6472 0 1.1718.5246 1.1718 1.1719v10.02c0 .6473-.5246 1.1719-1.1718 1.1719z" fill="#848489"/><path d="m6.18811 30.0408h1.91117c.64728 0 1.17188.5246 1.17188 1.1718v14.22c0 .6473-.5246 1.1719-1.17188 1.1719h-1.91117c-.64728 0-1.17187-.5246-1.17187-1.1719v-14.22c0-.6472.52459-1.1718 1.17187-1.1718z" fill="#848489"/><path d="m1.93274 32.1406h1.91162c.64683 0 1.17188.5246 1.17188 1.1719v10.02c0 .6473-.52505 1.1719-1.17188 1.1719h-1.91162c-.64682 0-1.171876-.5246-1.171876-1.1719v-10.02c0-.6473.525056-1.1719 1.171876-1.1719z" fill="#848489"/><g fill="#5b5b5b"><path d="m33.6411 30.0408h-1.8104c.6665 0 1.2062.5401 1.2062 1.2062v14.1509c0 .6665-.5397 1.2066-1.2062 1.2066h1.8104c.6661 0 1.2063-.5401 1.2063-1.2066v-14.1509c0-.6661-.5402-1.2062-1.2063-1.2062z"/><path d="m37.896 32.1406h-1.8104c.6665 0 1.2066.5402 1.2066 1.2067v9.9509c0 .666-.5401 1.2062-1.2066 1.2062h1.8104c.6661 0 1.2062-.5402 1.2062-1.2062v-9.9509c0-.6665-.5401-1.2067-1.2062-1.2067z"/><path d="m8.06449 30.0408h-1.81046c.6665 0 1.20667.5401 1.20667 1.2062v14.1509c0 .6665-.54017 1.2066-1.20667 1.2066h1.81046c.6665 0 1.20666-.5401 1.20666-1.2066v-14.1509c0-.6661-.54016-1.2062-1.20666-1.2062z"/><path d="m3.80948 32.1406h-1.81046c.66651 0 1.20667.5402 1.20667 1.2067v9.9509c0 .666-.54016 1.2062-1.20667 1.2062h1.81046c.66605 0 1.20621-.5402 1.20621-1.2062v-9.9509c.00046-.6665-.5397-1.2067-1.20621-1.2067z"/><path d="m25.5277 30.7581c-.3864 0-.7274-.2526-.84-.6225l-2.6679-8.7635h-7.9907c-.4852 0-.8785-.3932-.8785-.8784 0-.4848.3933-.878.8785-.878h8.6412c.3868 0 .7278.2527.8405.6226l2.0169 6.6261 2.9461-9.6771c.1122-.3699.4537-.6226.84-.6226.3864 0 .7274.2527.84.6226l1.2749 4.188h7.7234c.4848 0 .878.3933.878.8785 0 .4848-.3932.878-.878.878h-8.3739c-.3863 0-.7278-.2527-.84-.6221l-.6244-2.0513-2.9461 9.6772c-.1122.3699-.4532.6225-.84.6225z"/><path d="m58.0303 14.0717c-.2385-.423-.7741-.5722-1.1966-.3337-.422.238-.5717.7736-.3332 1.1961 1.0597 1.8796 1.6223 4.0141 1.626 6.1729.0109 5.7555-3.2964 12.1583-9.8292 19.0302-5.3187 5.5948-11.2871 9.8676-13.6061 11.4446-.3877.2641-.889.2641-1.2771 0-2.0559-1.398-7.0533-4.9658-11.8932-9.7069h8.1935v3.5587c0 1.1297.9192 2.0489 2.049 2.0489h1.9129c1.1303 0 2.0495-.9192 2.0495-2.0489v-.0742c.0956.0137.1931.0233.2925.0233h1.913c1.1297 0 2.0489-.9191 2.0489-2.0489v-10.0223c0-1.1298-.9192-2.049-2.0489-2.049h-1.913c-.0994 0-.1969.0097-.2925.0239v-.0747c0-1.1297-.9192-2.0489-2.0495-2.0489h-1.9129c-1.1298 0-2.049.9192-2.049 2.0489v3.4722h-2.7686c-.4852 0-.8784.3932-.8784.878 0 .4852.3932.8784.8784.8784h2.7686v3.6786h-19.5653v-3.6786h12.8247c.4852 0 .8785-.3932.8785-.8784 0-.4848-.3933-.878-.8785-.878h-7.7367c-3.4968-4.8372-5.26608-9.4034-5.25829-13.5764.01281-6.991 5.70789-12.67137 12.69879-12.67137h.0179c3.8626.00503 7.4671 1.73997 9.8891 4.75937.3589.4477.894.704 1.468.704.5741 0 1.1092-.2568 1.4681-.704 2.422-3.0194 6.0264-4.75388 9.8891-4.75937h.0178c3.246 0 6.3396 1.23596 8.714 3.48177.352.3332.9082.3177 1.2415-.0343.3332-.3525.3177-.9083-.0348-1.2415-2.7017-2.55616-6.2238-3.96241-9.9207-3.96241-.0064 0-.0137 0-.0206 0-4.3968.00595-8.4997 1.98029-11.2564 5.41721-.0499.0618-.1465.0618-.1959 0-2.7567-3.43647-6.8596-5.4108-11.2565-5.41721-.0073 0-.0132 0-.0206 0-7.9573 0-14.44059 6.46681-14.45524 14.42461-.00778 4.2467 1.62964 8.8088 4.86974 13.5796h-2.943v-3.4726c0-1.1298-.9192-2.049-2.04896-2.049h-1.91345c-1.12977 0-2.04896.9192-2.04896 2.049v.0746c-.09567-.0137-.19317-.0234-.29251-.0234h-1.91345c-1.129767 0-2.048958.9192-2.048958 2.049v10.0218c0 1.1298.919191 2.049 2.048958 2.049h1.91345c.09934 0 .19684-.0096.29251-.0234v.0747c0 1.1297.91919 2.0489 2.04896 2.0489h1.91345c1.12976 0 2.04896-.9192 2.04896-2.0489v-3.5587h8.8939c5.3073 5.463 11.109 9.6126 13.3832 11.1594.4939.336 1.0602.504 1.626.504.5662 0 1.1325-.168 1.6264-.504 2.3662-1.6091 8.4558-5.9693 13.8913-11.6872 6.8546-7.2102 10.3244-14.0213 10.313-20.2433-.0046-2.4595-.6454-4.8912-1.8526-7.0321zm-22.012 18.9473h1.9134c.1612 0 .2925.1314.2925.2925v10.0218c0 .1616-.1313.293-.2925.293h-1.9134c-.1612 0-.2925-.1314-.2925-.293v-10.0218c0-.1611.1313-.2925.2925-.2925zm-4.5475-1.8077c0-.1612.131-.2925.2926-.2925h1.9129c.1616 0 .293.1313.293.2925v14.2223c0 .1611-.1314.2925-.293.2925h-1.9129c-.1616 0-.2926-.1314-.2926-.2925zm-23.07815 14.2223c0 .1616-.13138.2929-.29251.2929h-1.91345c-.16114 0-.29252-.1313-.29252-.2929v-6.9439c0-.4847-.39322-.878-.87845-.878-.48477 0-.87799.3933-.87799.878v4.8436c0 .1616-.13138.293-.29297.293h-1.91299c-.16114 0-.29252-.1314-.29252-.293v-10.0218c0-.1611.13138-.2925.29252-.2925h1.91345c.16113 0 .29251.1314.29251.2925v1.079c0 .4852.39322.8779.87845.8779.48477 0 .87799-.3927.87799-.8779v-3.1792c0-.1612.13138-.2925.29297-.2925h1.913c.16113 0 .29251.1313.29251.2925z"/></g></g></svg>

<svg width="60" height="60" viewBox="0 0 60 60" fill="none" xmlns="http://www.w3.org/2000/svg">
<g clip-path="url(#clip0_2082_202)">
<path d="M45.4084 7.55763C41.1311 7.56358 37.3197 9.54936 34.8354 12.6457C34.434 13.146 33.6709 13.146 33.2694 12.6457C30.7856 9.54936 26.9742 7.56358 22.6969 7.55763C15.2317 7.5471 9.1141 13.6399 9.10037 21.1056C9.07428 35.1842 28.0427 48.9908 32.9201 52.3082C33.604 52.7733 34.5013 52.7733 35.1852 52.3082C40.0626 48.9908 59.0306 35.1842 59.0049 21.1056C58.9907 13.6404 52.8736 7.5471 45.4084 7.55763Z" fill="#FF592A"/>
<path d="M23.6765 7.59521C24.0198 7.9834 24.5907 8.03696 24.9967 7.75589C24.5637 7.68082 24.1228 7.62772 23.6765 7.59521Z" fill="#F63511"/>
<path d="M46.4072 7.59326C48.2598 9.90909 49.3731 12.8392 49.379 16.0184C49.4047 29.7976 31.2378 43.3144 25.8916 46.9935C28.8845 49.4856 31.5001 51.3418 32.9201 52.3077C33.604 52.7728 34.5012 52.7728 35.1851 52.3077C40.0626 48.9903 59.0305 35.1841 59.0049 21.1056C58.9916 13.9759 53.4115 8.09863 46.4072 7.59326Z" fill="#F63511"/>
<path d="M25.5277 30.7581C25.1413 30.7581 24.8003 30.5055 24.6877 30.1356L22.0198 21.3721H14.0291C13.5439 21.3721 13.1506 20.9789 13.1506 20.4937C13.1506 20.0089 13.5439 19.6157 14.0291 19.6157H22.6703C23.0571 19.6157 23.3981 19.8684 23.5108 20.2383L25.5277 26.8644L28.4738 17.1873C28.586 16.8174 28.9275 16.5647 29.3138 16.5647C29.7002 16.5647 30.0412 16.8174 30.1538 17.1873L31.4287 21.3753H39.1521C39.6369 21.3753 40.0301 21.7686 40.0301 22.2538C40.0301 22.7386 39.6369 23.1318 39.1521 23.1318H30.7782C30.3919 23.1318 30.0504 22.8791 29.9382 22.5097L29.3138 20.4584L26.3677 30.1356C26.2555 30.5055 25.9145 30.7581 25.5277 30.7581Z" fill="#FFC5B2"/>
<path d="M7.53345 35.5618H32.3296V40.9963H7.53345V35.5618Z" fill="#848489"/>
<path d="M27.2805 35.5618V36.92C27.2805 37.9275 26.4634 38.7446 25.4558 38.7446H7.53345V40.9963H32.3296V35.5618H27.2805Z" fill="#5B5B5B"/>
<path d="M33.6755 46.6045H31.7643C31.117 46.6045 30.5924 46.0799 30.5924 45.4326V31.2126C30.5924 30.5654 31.117 30.0408 31.7643 30.0408H33.6755C34.3227 30.0408 34.8473 30.5654 34.8473 31.2126V45.4326C34.8473 46.0799 34.3227 46.6045 33.6755 46.6045Z" fill="#848489"/>
<path d="M37.9305 44.5044H36.0193C35.372 44.5044 34.8474 43.9798 34.8474 43.3325V33.3125C34.8474 32.6652 35.372 32.1406 36.0193 32.1406H37.9305C38.5777 32.1406 39.1023 32.6652 39.1023 33.3125V43.3325C39.1023 43.9798 38.5777 44.5044 37.9305 44.5044Z" fill="#848489"/>
<path d="M6.18811 30.0408H8.09928C8.74656 30.0408 9.27116 30.5654 9.27116 31.2126V45.4326C9.27116 46.0799 8.74656 46.6045 8.09928 46.6045H6.18811C5.54083 46.6045 5.01624 46.0799 5.01624 45.4326V31.2126C5.01624 30.5654 5.54083 30.0408 6.18811 30.0408Z" fill="#848489"/>
<path d="M1.93274 32.1406H3.84436C4.49119 32.1406 5.01624 32.6652 5.01624 33.3125V43.3325C5.01624 43.9798 4.49119 44.5044 3.84436 44.5044H1.93274C1.28592 44.5044 0.760864 43.9798 0.760864 43.3325V33.3125C0.760864 32.6652 1.28592 32.1406 1.93274 32.1406Z" fill="#848489"/>
<path d="M33.6411 30.0408H31.8307C32.4972 30.0408 33.0369 30.5809 33.0369 31.247V45.3979C33.0369 46.0644 32.4972 46.6045 31.8307 46.6045H33.6411C34.3072 46.6045 34.8474 46.0644 34.8474 45.3979V31.247C34.8474 30.5809 34.3072 30.0408 33.6411 30.0408Z" fill="#5B5B5B"/>
<path d="M37.896 32.1406H36.0856C36.7521 32.1406 37.2922 32.6808 37.2922 33.3473V43.2982C37.2922 43.9642 36.7521 44.5044 36.0856 44.5044H37.896C38.5621 44.5044 39.1022 43.9642 39.1022 43.2982V33.3473C39.1022 32.6808 38.5621 32.1406 37.896 32.1406Z" fill="#5B5B5B"/>
<path d="M8.06449 30.0408H6.25403C6.92053 30.0408 7.4607 30.5809 7.4607 31.247V45.3979C7.4607 46.0644 6.92053 46.6045 6.25403 46.6045H8.06449C8.73099 46.6045 9.27115 46.0644 9.27115 45.3979V31.247C9.27115 30.5809 8.73099 30.0408 8.06449 30.0408Z" fill="#5B5B5B"/>
<path d="M3.80948 32.1406H1.99902C2.66553 32.1406 3.20569 32.6808 3.20569 33.3473V43.2982C3.20569 43.9642 2.66553 44.5044 1.99902 44.5044H3.80948C4.47553 44.5044 5.01569 43.9642 5.01569 43.2982V33.3473C5.01615 32.6808 4.47599 32.1406 3.80948 32.1406Z" fill="#5B5B5B"/>
<path d="M25.5277 30.7581C25.1413 30.7581 24.8003 30.5055 24.6877 30.1356L22.0198 21.3721H14.0291C13.5439 21.3721 13.1506 20.9789 13.1506 20.4937C13.1506 20.0089 13.5439 19.6157 14.0291 19.6157H22.6703C23.0571 19.6157 23.3981 19.8684 23.5108 20.2383L25.5277 26.8644L28.4738 17.1873C28.586 16.8174 28.9275 16.5647 29.3138 16.5647C29.7002 16.5647 30.0412 16.8174 30.1538 17.1873L31.4287 21.3753H39.1521C39.6369 21.3753 40.0301 21.7686 40.0301 22.2538C40.0301 22.7386 39.6369 23.1318 39.1521 23.1318H30.7782C30.3919 23.1318 30.0504 22.8791 29.9382 22.5097L29.3138 20.4584L26.3677 30.1356C26.2555 30.5055 25.9145 30.7581 25.5277 30.7581Z" fill="#5B5B5B"/>
<path d="M58.0303 14.0717C57.7918 13.6487 57.2562 13.4995 56.8337 13.738C56.4117 13.976 56.262 14.5116 56.5005 14.9341C57.5602 16.8137 58.1228 18.9482 58.1265 21.107C58.1374 26.8625 54.8301 33.2653 48.2973 40.1372C42.9786 45.732 37.0102 50.0048 34.6912 51.5818C34.3035 51.8459 33.8022 51.8459 33.4141 51.5818C31.3582 50.1838 26.3608 46.616 21.5209 41.8749H29.7144V45.4336C29.7144 46.5633 30.6336 47.4825 31.7634 47.4825H33.6763C34.8066 47.4825 35.7258 46.5633 35.7258 45.4336V45.3594C35.8214 45.3731 35.9189 45.3827 36.0183 45.3827H37.9313C39.061 45.3827 39.9802 44.4636 39.9802 43.3338V33.3115C39.9802 32.1817 39.061 31.2625 37.9313 31.2625H36.0183C35.9189 31.2625 35.8214 31.2722 35.7258 31.2864V31.2117C35.7258 30.082 34.8066 29.1628 33.6763 29.1628H31.7634C30.6336 29.1628 29.7144 30.082 29.7144 31.2117V34.6839H26.9458C26.4606 34.6839 26.0674 35.0771 26.0674 35.5619C26.0674 36.0471 26.4606 36.4403 26.9458 36.4403H29.7144V40.1189H10.1491V36.4403H22.9738C23.459 36.4403 23.8523 36.0471 23.8523 35.5619C23.8523 35.0771 23.459 34.6839 22.9738 34.6839H15.2371C11.7403 29.8467 9.97102 25.2805 9.97881 21.1075C9.99162 14.1165 15.6867 8.43613 22.6776 8.43613H22.6955C26.5581 8.44116 30.1626 10.1761 32.5846 13.1955C32.9435 13.6432 33.4786 13.8995 34.0526 13.8995C34.6267 13.8995 35.1618 13.6427 35.5207 13.1955C37.9427 10.1761 41.5471 8.44162 45.4098 8.43613H45.4276C48.6736 8.43613 51.7672 9.67209 54.1416 11.9179C54.4936 12.2511 55.0498 12.2356 55.3831 11.8836C55.7163 11.5311 55.7008 10.9753 55.3483 10.6421C52.6466 8.08594 49.1245 6.67969 45.4276 6.67969C45.4212 6.67969 45.4139 6.67969 45.407 6.67969C41.0102 6.68564 36.9073 8.65998 34.1506 12.0969C34.1007 12.1587 34.0041 12.1587 33.9547 12.0969C31.198 8.66043 27.0951 6.6861 22.6982 6.67969C22.6909 6.67969 22.685 6.67969 22.6776 6.67969C14.7203 6.67969 8.23701 13.1465 8.22236 21.1043C8.21458 25.351 9.852 29.9131 13.0921 34.6839H10.1491V31.2113C10.1491 30.0815 9.2299 29.1623 8.10014 29.1623H6.18669C5.05692 29.1623 4.13773 30.0815 4.13773 31.2113V31.2859C4.04206 31.2722 3.94456 31.2625 3.84522 31.2625H1.93177C0.802003 31.2625 -0.117188 32.1817 -0.117188 33.3115V43.3333C-0.117188 44.4631 0.802003 45.3823 1.93177 45.3823H3.84522C3.94456 45.3823 4.04206 45.3727 4.13773 45.3589V45.4336C4.13773 46.5633 5.05692 47.4825 6.18669 47.4825H8.10014C9.2299 47.4825 10.1491 46.5633 10.1491 45.4336V41.8749H19.043C24.3503 47.3379 30.152 51.4875 32.4262 53.0343C32.9201 53.3703 33.4864 53.5383 34.0522 53.5383C34.6184 53.5383 35.1847 53.3703 35.6786 53.0343C38.0448 51.4252 44.1344 47.065 49.5699 41.3471C56.4245 34.1369 59.8943 27.3258 59.8829 21.1038C59.8783 18.6443 59.2375 16.2126 58.0303 14.0717ZM36.0183 33.019H37.9317C38.0929 33.019 38.2242 33.1504 38.2242 33.3115V43.3333C38.2242 43.4949 38.0929 43.6263 37.9317 43.6263H36.0183C35.8571 43.6263 35.7258 43.4949 35.7258 43.3333V33.3115C35.7258 33.1504 35.8571 33.019 36.0183 33.019ZM31.4708 31.2113C31.4708 31.0501 31.6018 30.9188 31.7634 30.9188H33.6763C33.8379 30.9188 33.9693 31.0501 33.9693 31.2113V45.4336C33.9693 45.5947 33.8379 45.7261 33.6763 45.7261H31.7634C31.6018 45.7261 31.4708 45.5947 31.4708 45.4336V31.2113ZM8.39265 45.4336C8.39265 45.5952 8.26127 45.7265 8.10014 45.7265H6.18669C6.02555 45.7265 5.89417 45.5952 5.89417 45.4336V38.4897C5.89417 38.005 5.50095 37.6117 5.01572 37.6117C4.53095 37.6117 4.13773 38.005 4.13773 38.4897V43.3333C4.13773 43.4949 4.00635 43.6263 3.84476 43.6263H1.93177C1.77063 43.6263 1.63925 43.4949 1.63925 43.3333V33.3115C1.63925 33.1504 1.77063 33.019 1.93177 33.019H3.84522C4.00635 33.019 4.13773 33.1504 4.13773 33.3115V34.3905C4.13773 34.8757 4.53095 35.2684 5.01618 35.2684C5.50095 35.2684 5.89417 34.8757 5.89417 34.3905V31.2113C5.89417 31.0501 6.02555 30.9188 6.18714 30.9188H8.10014C8.26127 30.9188 8.39265 31.0501 8.39265 31.2113V45.4336Z" fill="#5B5B5B"/>
</g>
<defs>
<clipPath id="clip0_2082_202">
<rect width="60" height="60" fill="white"/>
</clipPath>
</defs>
</svg>
